X: 27
T: Miss Cornish's Minuet
C: (Cantelo)
R: minuet
M: 3/4
L: 1/8
Z: 2010 John Chambers <jc:trillian.mit.edu>
B: Cantelo ed. "Twenty Four American Country Dances", London 1785 (Longman & Broderip)
S: http://www.archive.org/stream/bibliographyofea00sonnrich/bibliographyofea00sonnrich_djvu.txt
S: http://imslp.org/wiki/24_American_Country_Dances_(Cantelo,_Hezekiah)
N: ABC doesn't allow the double grace note in bar 4, so I rewrote it as a short 2-note chord.
K: F
%
V: 1
|:\
A2 A3 B | {A}G2 FGAB |\
[c2A2] [c3A3] [dB] | [cA]/2[B3/2G3/2] [AF]cde |\
Tf2 (3agf (3ed^c | Td2 (3fed (3=cBA |
TB2 (3dcB (3AGF |1 c2 C2 z2 :|2 c2 C2 z2 ||\
|:\
c2 cccc | (c=B) B4 |\
(_B3/c//B//) g3 B | (BA) A4 |
(G3/A//G//) d3 F | F2 EFGA |\
(B2 A)cf>A | A2 G2 z2 |\
A2 A3 B | {A}G2 FGAB |
[c2A2] [c3A3] [dB] | [cA]/2[B3/2G3/2] [AF]cde |\
f2 (3agf (3ed^c | d2 (3fed (3=cBA |\
(3GBd F2 E2 |1 [F4A,4] z2 :|2 H[F4A,4] z2 |]
%
V: 2 clef=bass middle=d
|: f2 F2 z2 | c2 F2 z2 | f2 F2 z2 | c2 F2 z2 |\
[f2F2] z2 z2 | [b2B2] z2 z2 | Tb2 (3d'c'b (3agf |1 c'2 cBAG :|2 c'2 cfed ||
|: c2 c2 c2 | d2 d2 d2 | e2 e2 e2 | f3 FGA |\
B2 b4 | a2 g2 f2 | e2 fg a>f | c'2 cABG |
F4 z2 | c2 F2 z2 | f2 F2 z2 | c2 F2 z2 |\
[f2F2] z2 z2 | [b2B2] z2 z2 | Tb2 c'2 c2 |1 F3 GAB :|2 HF4 z2 |]

%%sep 2 1 500

